X: 1
T: Vals etter Johannes Johansen
O: Norway
S: Sør-Fron Spelemannslag, Gola SFSCD 1991 [5/1996]
Z: from a transcription by Karen Myers
M: 3/4
L: 1/8
K: Am
E2 \
| "Am"E2 C2 D2 \
| E4 E2 \
| A2 A^G AB \
| c3 Bcd \
| e2 a2 e2 \
| c2 B2 A2 \
| "E7"^GA B2 G2 |
|1,3 "E7"E4 \
:|2,4 "Am"A4 \
:: "(E7)"e2 \
| "Am"a2 a^g ab \
| a4 "(E7)"e2 \
| "Am"c2 cB ce \
| c2 B2 A2 |
| "E7"E2 ^G2 B2 \
| e2 c2 B2 \
|1,3 "Am"A^G AB cd \
| "E7"e4 \
:|2 "Am"A2 A^G AB \
| A4  \
:|4 "Am"A3 A A2 \
| A4 |]

